X:1
T:Better Days Are Dawning
T:Guy Irving Waltz
T:Better Days Are Dawning
T:Public Domain
T:Public Domain
C:Guy Irving Waltz
Z:Public Domain
%%score ( 1 2 ) ( 3 4 )
L:1/8
M:4/4
K:Ab
V:1 treble 
V:2 treble 
V:3 bass 
V:4 bass 
V:1
 E2 (z G) [EB] [EA]3 | [DE]>[D=E] [DF]>[DE] [C_E]4 | [Ec]3 [DB] [CA]2 [Ec]2 | %3
w: 1.~Cour- * age, mo-|* your child- ren stray|Far from paths of|
w: 2.~Cease * not pray-|* dis- heart- ened wife,|For the one that’s|
w: 3.~Wea- * ry suf-|* long hours of pain,|By you stands the|
w: 4.~All * who fal-|* a load of care,|Christ will aid, your|
 [GB]>[Gc] [Gd]>[Gc] [GB]4 | [Ec]2 [EA]2 [=Ec]2 [FA]2 | [DA]>[DA] [DG]>[DF] [CE]4 | %6
w: love and peace a- way.|Work on, pray on,|though the sky’s o’er- cast;|
w: dear- er far than life.|Work on, pray on,|though the sky’s o’er- cast;|
w: Com- fort- er a- gain.|Work on, pray on,|though the sky’s o’er- cast;|
w: hea- vy bur- dens share.|Work on, pray on,|though the sky’s o’er- cast;|
 F[Fd][Fc][FB] [Ee] [Ec]2 [CA] | [Ec]>[EB] [EA]>[DG] [CA]4 || %8
w: Bet- ter days are dawn- ing, and|will come at last. *|
w: Bet- ter days are dawn- ing, and|will come at last. Bet-|
w: Bet- ter days are dawn- ing, and|will come at last. *|
w: Bet- ter days are dawn- ing, and|will come at last. *|
"^Refrain" [Ec]>[EB] [EA][EB] [Ac] [EA]3 | [FA]>[FA] [EG]>[DF] [CE]4 | %10
w: ||
w: ter days are dawn- ing; joy|will come at last God|
w: ||
w: ||
 [CE]>[CE] [EA]>[EB] [Ec] [EA]3 | [GB]>[Gc] [Gd]>[Gc] [GB]4 |] %12
w: ||
w: will hear and an- swer, as|in ag- es past. Work|
w: ||
w: ||
V:2
 c3 E2 x3 | x8 | x8 | x8 | x8 | x8 | F x7 | x8 || x8 | x8 | x8 | x8 |] %12
w: ther, though||||||joy||||||
w: ing, sad,||||||joy||||||
w: ferer, through||||||joy||||||
w: ter ’neath||||||joy||||||
V:3
 [A,,A,]2 [A,,A,]2 [C,A,]2 [C,A,]2 | [E,B,]>[E,A,] [E,G,]>[E,G,] [A,,A,]4 | %2
 A,3 [E,G,] [A,,A,]2 [A,,A,]2 | [E,D]>[E,C] [E,B,]>[E,C] [E,D]4 | [A,C]2 [A,C]2 [G,C]2 [F,C]2 | %5
 [D,F,]>[D,F,] [D,G,]>[D,A,] [A,,A,]4 | [D,A,][D,A,][D,A,][D,A,] [C,A,] [A,,A,]2 [F,A,] | %7
 [E,A,]>[E,D] [E,C]>[E,B,] [A,,A,]4 || [A,E]>[A,D] [A,C][A,D] [A,E] [A,C]3 | %9
 [D,A,]>[D,A,] [D,D]>[D,A,] [A,,A,]4 | [A,,A,]>[A,,A,] [C,A,]>[E,G,] A, [A,C]3 | %11
 [E,D]>[E,C] [E,B,]>[E,C] [E,D]4 |] %12
V:4
 x8 | x8 | A,3 x5 | x8 | x8 | x8 | x8 | x8 || x8 | x8 | x4 A, x3 | x8 |] %12

